icons/24x24_building_edit_outline.svg

<svg width="24" height="24" viewBox="0 0 24 24" fill="none" xmlns="http://www.w3.org/2000/svg">
<path fill-rule="evenodd" clip-rule="evenodd" d="M22 14.3414C21.3744 14.1203 20.7013 14 20 14V11H14V20H12V6H6V12H8C9.10457 12 10 12.8954 10 14V20H8V14H4V20H2V14C2 12.8954 2.89543 12 4 12V6C4 4.89543 4.89543 4 6 4H12C13.1046 4 14 4.89543 14 6V9H16V7C16 6.44772 16.4477 6 17 6C17.5523 6 18 6.44772 18 7V9H20C21.1046 9 22 9.89543 22 11V14.3414Z" fill="black"/>
<path d="M22.622 16C22.2692 16 21.9165 16.1344 21.6478 16.4038L16.7758 21.2757L16.0176 23.5503C15.958 23.7293 16.0547 23.9227 16.2337 23.9824C16.3038 24.0058 16.3796 24.0058 16.4497 23.9824L18.7243 23.2242L23.5962 18.3522C23.8656 18.0835 24 17.7308 24 17.378C24 17.0252 23.8656 16.6732 23.5962 16.4038C23.3268 16.1344 22.9748 16 22.622 16Z" fill="black"/>
</svg>

<svg width="24" height="24" fill="none" xmlns="http://www.w3.org/2000/svg"><path fill-rule="evenodd" clip-rule="evenodd" d="M22 14.341A5.99 5.99 0 0 0 20 14v-3h-6v9h-2V6H6v6h2a2 2 0 0 1 2 2v6H8v-6H4v6H2v-6a2 2 0 0 1 2-2V6a2 2 0 0 1 2-2h6a2 2 0 0 1 2 2v3h2V7a1 1 0 1 1 2 0v2h2a2 2 0 0 1 2 2v3.341Z" fill="#000"/><path d="M22.622 16c-.353 0-.706.134-.974.404l-4.872 4.872-.758 2.274a.342.342 0 0 0 .432.432l2.274-.758 4.872-4.872a1.372 1.372 0 0 0 0-1.948 1.372 1.372 0 0 0-.974-.404Z" fill="#000"/></svg>
